X: 1
T: Frolicksome Paddy
R: slipjig
O:
B: SRSNH 5.31
D:
Z: John Chambers <jc:trillian.mit.edu>
M: 9/8
L: 1/8
K: D
|: "D"d2B AFA AFA | d2B AFD "A7"E2c | "D"d2B AFA AFA | "G"d2B "A7"AFA "D"D3 :|
[| "D"f2d faf "A7"ecA | "D"f2d faf "A7"e2g | "D"f2d faf "A7"ecA | "G"d2B "D"AFA "A7"E3 ||
|| "D"f2d faf "A7"ecA | "D"f2d faf "A7"e2g | "D"f2d faf "A7"ecA | "G"d2B "A7"AFA "D"D3 |]
